X:1
T:The Angel’s Proclamation
T:The Angel’s Proclamation
T:Theodore Edson Perkins
T:Frances Jane (Fanny) Crosby, 1874
T:Public Domain Courtesy of the Cyber Hymnal™
T:Public Domain Courtesy of the Cyber Hymnal™
C:Theodore Edson Perkins
Z:Public Domain
Z:Courtesy of the Cyber Hymnal™
%%score ( 1 2 ) ( 3 4 )
L:1/8
Q:1/4=115
M:4/4
K:C
V:1 treble 
V:2 treble 
V:3 bass 
V:4 bass 
V:1
 [Ec]2 [Ec]2 G2 G2 | [FA]2 [FA]2 [CE]4 | [CF]2 [CG]2 (AB) [Ec]2 | [Gd]2 [^Fd]2 [Gd]4 | %4
w: 1.~Hark! the might- y|tones sub- lime,|Trump- et tongues * of|old- en time—|
w: 2.~Mourn- ing cap- tive,|cease thy tears;|Lo! the prom- * ised|day ap- pears,|
w: 3.~Now with heal- ing|in her wings,|Hark! a white * robed|an- gel sings:|
 [Ec]2 [Ec]2 G2 G2 | [FA]2 [FA]2 [CE]4 | [CF]2 [CG]2 (AB) [Ec]2 | [Fd]2 [FB]2 [Ec]4 | %8
w: Breath- ing on the|si- lent air,|Shout- ing glo- * ry|ev- ery- where!|
w: Thro’ the mist- y|veil of night,|Burst- ing in * a|flood of light;|
w: “Mor- tals, from the|realms a- bove|I have borne * my|harp of love;|
 [Ge]2 [Ec]2 [EG]2 ([CE][DF]) | [EG]2 [FA]2 [EG]4 | [Ec]2 [GB]2 (AB) [Gc]2 | [Gd]2 [^Fd]2 [Gd]4 | %12
w: Hark! a- gain their *|joy- ful sound|Rings a- far, * the|earth a- round;|
w: Oh, what won- drous *|things are done|By the Fa- * ther,|thro’ the Son!|
w: Hal- le- lu- jah! *|sing with me;|Hail your great- * est|ju- bi- lee!|
 [Ge]2 [Ed]2 [EG]2 ([CE][DF]) | [EG]2 [FA]2 [EG]4 | [Ec]2 [GB]2 (AB) [Gc]2 | [Fd]2 [Fd]2 [Ec]4 || %16
w: While a vast, a- *|dor- ing throng|Catch the strain * and|join the song.|
w: Oh, the smile of *|pard- oning grace,|Beam- ing in * the|Sav- ior’s face.|
w: Sing, in pur- est, *|sweet- est lays,|On this ho- * ly|day of days.”|
"^Refrain" [Ec]2 [Fc]2 [Gc]2 [Ac]2 | [Gc]2 [Fc]2 [Ec]4 | [Gd]2 [^Fd]2 [Gd]2 [Ad]2 | %19
w: |||
w: Un- to us a|child is giv’n;|O- pen now the|
w: |||
 [Gd]2 [^Fd]2 [Gd]4 | [Ge]2 [Ed]2 [EG]2 ([CE][DF]) | [EG]2 [FA]2 [EG]4 | [Ec]2 [GB]2 (AB) [Gc]2 | %23
w: ||||
w: gates of Heav’n;|E- den lost, to *|man re- stored,|Thro’ the birth * of|
w: ||||
 [Fd]2 [Fd]2 [Ec]4 |] %24
w: |
w: Christ the Lord.|
w: |
V:2
 x4 G2 G2 | x8 | x4 F2 x2 | x8 | x4 G2 G2 | x8 | x4 F2 x2 | x8 | x8 | x8 | x4 F2 x2 | x8 | x8 | %13
 x8 | x4 F2 x2 | x8 || x8 | x8 | x8 | x8 | x8 | x8 | x4 F2 x2 | x8 |] %24
V:3
 [C,G,]2 [C,G,]2 [E,C]2 [E,C]2 | [F,C]2 [F,C]2 [G,C]4 | [F,A,]2 [E,C]2 [D,G,]2 [C,G,]2 | %3
 [G,B,]2 [D,A,]2 [G,B,]4 | [C,G,]2 [C,G,]2 [E,C]2 [E,C]2 | [F,C]2 [F,C]2 [G,C]4 | %6
 [F,A,]2 [E,C]2 [D,G,]2 [C,G,]2 | [F,A,]2 G,2 [C,G,]4 | [C,G,]2 [C,G,]2 [C,G,]2 [C,G,]2 | %9
 [C,C]2 [F,C]2 [C,C]4 | [C,G,]2 [E,C]2 [F,C]2 [E,C]2 | [D,B,]2 [D,C]2 [G,B,]4 | %12
 [C,C]2 [C,G,]2 [C,G,]2 [C,G,]2 | [C,C]2 [F,C]2 [C,C]4 | [C,G,]2 [E,C]2 [F,C]2 [F,C]2 | %15
 [F,A,]2 G,2 [C,G,]4 || [C,G,]2 [D,G,]2 [E,C]2 [F,C]2 | [E,C]2 [D,G,]2 [C,G,]4 | %18
 [G,B,]2 [A,C]2 [B,D]2 [CD]2 | [B,D]2 [A,C]2 [G,B,]4 | [C,C]2 [C,G,]2 [C,G,]2 [C,G,]2 | %21
 [C,C]2 [F,C]2 [C,C]4 | [C,G,]2 [E,C]2 [F,C]2 [F,C]2 | [F,A,]2 G,2 [C,G,]4 |] %24
V:4
 x8 | x8 | x8 | x8 | x8 | x8 | x8 | x2 G,2 x4 | x8 | x8 | x8 | x8 | x8 | x8 | x8 | x2 G,2 x4 || %16
 x8 | x8 | x8 | x8 | x8 | x8 | x8 | x2 G,2 x4 |] %24

